cc-by-sa/knowledge/modules/using_type/lessons/vertical_spacing_and_line_height_in_design_systems/images/ratio.svg

<svg xmlns="http://www.w3.org/2000/svg" width="1920" height="1080" fill="none"><path fill="#D2E3FC" d="M477 562h223v172H477z"/><path fill="#1A73E8" d="m567.619 715-8.902-29.227h-44.764L505.051 715H477l43.336-123.289h31.83L595.67 715h-28.051Zm-15.117-51.062-8.902-28.555a326.8 326.8 0 0 0-2.268-7.307 837.28 837.28 0 0 0-2.771-9.154 220.158 220.158 0 0 1-2.184-8.147c-.56 2.296-1.344 5.151-2.352 8.567a815.425 815.425 0 0 1-2.771 9.574c-.896 3.023-1.54 5.179-1.932 6.467l-8.818 28.555h31.998Zm95.154-44.764c12.598 0 22.256 2.743 28.975 8.23 6.719 5.487 10.078 13.83 10.078 25.028V715H668.82l-4.955-12.766h-.672c-2.687 3.36-5.431 6.103-8.23 8.231-2.8 2.127-6.019 3.695-9.658 4.703-3.64 1.008-8.063 1.512-13.27 1.512-5.543 0-10.526-1.064-14.949-3.192-4.367-2.127-7.811-5.375-10.33-9.742-2.52-4.423-3.779-10.022-3.779-16.797 0-9.966 3.499-17.301 10.498-22.004 6.998-4.759 17.496-7.39 31.494-7.894l16.293-.504v-4.115c0-4.927-1.288-8.539-3.864-10.834-2.575-2.296-6.158-3.444-10.75-3.444-4.535 0-8.986.644-13.353 1.932a103.56 103.56 0 0 0-13.102 4.871l-8.482-17.301c4.983-2.631 10.554-4.703 16.713-6.215 6.215-1.511 12.625-2.267 19.232-2.267Zm13.606 52.322-9.91.336c-8.287.224-14.054 1.708-17.301 4.451-3.192 2.744-4.787 6.355-4.787 10.834 0 3.919 1.147 6.719 3.443 8.399 2.296 1.623 5.291 2.435 8.986 2.435 5.487 0 10.106-1.624 13.858-4.871 3.807-3.247 5.711-7.866 5.711-13.857v-7.727Z"/><path fill="#FF6D7F" d="M477 562h223v30H477zM477 715h223v19H477z"/><path fill="#D2E3FC" d="M857.957 314h586v452h-586z"/><path fill="#1A73E8" d="m1096.1 715-23.4-76.805H955.066L931.672 715h-73.715L971.84 391.008h83.65L1169.81 715h-73.71Zm-39.73-134.188-23.4-75.039c-1.47-5.002-3.45-11.403-5.95-19.201-2.36-7.945-4.79-15.964-7.29-24.056-2.35-8.24-4.26-15.376-5.74-21.409-1.47 6.033-3.53 13.537-6.18 22.512-2.5 8.828-4.92 17.215-7.28 25.16a2667.166 2667.166 0 0 1-5.075 16.994l-23.174 75.039h84.089Zm250.06-117.634c33.1 0 58.48 7.209 76.14 21.629 17.65 14.419 26.48 36.342 26.48 65.769V715h-47.01l-13.02-33.547h-1.76c-7.07 8.828-14.28 16.038-21.63 21.629-7.36 5.591-15.82 9.711-25.38 12.359-9.57 2.649-21.19 3.973-34.87 3.973-14.57 0-27.67-2.796-39.29-8.387-11.48-5.591-20.53-14.125-27.15-25.601-6.62-11.624-9.93-26.337-9.93-44.141 0-26.19 9.2-45.465 27.59-57.824 18.39-12.507 45.98-19.422 82.76-20.746l42.82-1.324v-10.815c0-12.948-3.38-22.438-10.15-28.471-6.77-6.032-16.19-9.048-28.25-9.048-11.92 0-23.62 1.692-35.09 5.076-11.48 3.384-22.96 7.651-34.43 12.801l-22.3-45.465c13.1-6.916 27.74-12.36 43.92-16.332 16.34-3.973 33.18-5.959 50.55-5.959Zm35.75 137.498-26.04.883c-21.78.588-36.93 4.487-45.47 11.697-8.38 7.209-12.58 16.7-12.58 28.471 0 10.299 3.02 17.656 9.05 22.07 6.03 4.267 13.9 6.4 23.62 6.4 14.42 0 26.55-4.267 36.41-12.801 10.01-8.533 15.01-20.672 15.01-36.416v-20.304Z"/><path fill="#FF6D7F" d="M858 314h585v77H858zM858 715h585v51H858z"/><path stroke="#FF6D7F" stroke-dasharray="8 8" stroke-linecap="round" stroke-width="2" d="m700 562 158-248M700 592l158-201M700 715h158M700 734l158 32"/></svg>

<svg width="1920" height="1080" viewBox="0 0 1920 1080" fill="none" xmlns="http://www.w3.org/2000/svg">
<rect width="223" height="172" transform="translate(477 562)" fill="#D2E3FC"/>
<path d="M567.619 715L558.717 685.773H513.953L505.051 715H477L520.336 591.711H552.166L595.67 715H567.619ZM552.502 663.938L543.6 635.383C543.04 633.479 542.284 631.044 541.332 628.076C540.436 625.053 539.512 622.001 538.561 618.922C537.665 615.786 536.937 613.071 536.377 610.775C535.817 613.071 535.033 615.926 534.025 619.342C533.074 622.701 532.15 625.893 531.254 628.916C530.358 631.939 529.714 634.095 529.322 635.383L520.504 663.938H552.502ZM647.656 619.174C660.254 619.174 669.912 621.917 676.631 627.404C683.35 632.891 686.709 641.234 686.709 652.432V715H668.82L663.865 702.234H663.193C660.506 705.594 657.762 708.337 654.963 710.465C652.163 712.592 648.944 714.16 645.305 715.168C641.665 716.176 637.242 716.68 632.035 716.68C626.492 716.68 621.509 715.616 617.086 713.488C612.719 711.361 609.275 708.113 606.756 703.746C604.236 699.323 602.977 693.724 602.977 686.949C602.977 676.983 606.476 669.648 613.475 664.945C620.473 660.186 630.971 657.555 644.969 657.051L661.262 656.547V652.432C661.262 647.505 659.974 643.893 657.398 641.598C654.823 639.302 651.24 638.154 646.648 638.154C642.113 638.154 637.662 638.798 633.295 640.086C628.928 641.374 624.561 642.997 620.193 644.957L611.711 627.656C616.694 625.025 622.265 622.953 628.424 621.441C634.639 619.93 641.049 619.174 647.656 619.174ZM661.262 671.496L651.352 671.832C643.065 672.056 637.298 673.54 634.051 676.283C630.859 679.027 629.264 682.638 629.264 687.117C629.264 691.036 630.411 693.836 632.707 695.516C635.003 697.139 637.998 697.951 641.693 697.951C647.18 697.951 651.799 696.327 655.551 693.08C659.358 689.833 661.262 685.214 661.262 679.223V671.496Z" fill="#1A73E8"/>
<rect x="477" y="562" width="223" height="30" fill="#FF6D7F"/>
<rect x="477" y="715" width="223" height="19" fill="#FF6D7F"/>
<rect width="586" height="452" transform="translate(857.957 314)" fill="#D2E3FC"/>
<path d="M1096.1 715L1072.7 638.195H955.066L931.672 715H857.957L971.84 391.008H1055.49L1169.81 715H1096.1ZM1056.37 580.812L1032.97 505.773C1031.5 500.771 1029.52 494.37 1027.02 486.572C1024.66 478.627 1022.23 470.608 1019.73 462.516C1017.38 454.276 1015.47 447.14 1013.99 441.107C1012.52 447.14 1010.46 454.644 1007.81 463.619C1005.31 472.447 1002.89 480.834 1000.53 488.779C998.177 496.725 996.485 502.389 995.455 505.773L972.281 580.812H1056.37ZM1306.43 463.178C1339.53 463.178 1364.91 470.387 1382.57 484.807C1400.22 499.226 1409.05 521.149 1409.05 550.576V715H1362.04L1349.02 681.453H1347.26C1340.19 690.281 1332.98 697.491 1325.63 703.082C1318.27 708.673 1309.81 712.793 1300.25 715.441C1290.68 718.09 1279.06 719.414 1265.38 719.414C1250.81 719.414 1237.71 716.618 1226.09 711.027C1214.61 705.436 1205.56 696.902 1198.94 685.426C1192.32 673.802 1189.01 659.089 1189.01 641.285C1189.01 615.095 1198.21 595.82 1216.6 583.461C1234.99 570.954 1262.58 564.039 1299.36 562.715L1342.18 561.391V550.576C1342.18 537.628 1338.8 528.138 1332.03 522.105C1325.26 516.073 1315.84 513.057 1303.78 513.057C1291.86 513.057 1280.16 514.749 1268.69 518.133C1257.21 521.517 1245.73 525.784 1234.26 530.934L1211.96 485.469C1225.06 478.553 1239.7 473.109 1255.88 469.137C1272.22 465.164 1289.06 463.178 1306.43 463.178ZM1342.18 600.676L1316.14 601.559C1294.36 602.147 1279.21 606.046 1270.67 613.256C1262.29 620.465 1258.09 629.956 1258.09 641.727C1258.09 652.026 1261.11 659.383 1267.14 663.797C1273.17 668.064 1281.04 670.197 1290.76 670.197C1305.18 670.197 1317.31 665.93 1327.17 657.396C1337.18 648.863 1342.18 636.724 1342.18 620.98V600.676Z" fill="#1A73E8"/>
<rect x="858" y="314" width="585" height="77" fill="#FF6D7F"/>
<rect x="858" y="715" width="585" height="51" fill="#FF6D7F"/>
<path d="M700 562L858 314" stroke="#FF6D7F" stroke-width="2" stroke-linecap="round" stroke-dasharray="8 8"/>
<path d="M700 592L858 391" stroke="#FF6D7F" stroke-width="2" stroke-linecap="round" stroke-dasharray="8 8"/>
<path d="M700 715H858" stroke="#FF6D7F" stroke-width="2" stroke-linecap="round" stroke-dasharray="8 8"/>
<path d="M700 734L858 766" stroke="#FF6D7F" stroke-width="2" stroke-linecap="round" stroke-dasharray="8 8"/>
</svg>
